X:1
T:Title
%%score ( 1 2 ) ( 3 4 )
L:1/8
Q:1/4=90
M:4/4
K:A
V:1 treble nm="Violin, SOPRANO ALTO"
V:2 treble 
V:3 bass nm="Violin, TENOR BASS"
V:4 bass 
V:1
 z4 z2 [CE][CE] | [CE][Ec][Ec][Ec] [Ec]2 [CA][EG] | [DF][Fd][Fd][Fd] [Fd]2 [DF][DF] | %3
w: 1.~Is~ thy~|trou bled~ heart~ op pressed,~ Heav y|lad en,~ sick~ and~ sore,~ By~ the~|
 [CE][EA][EA][EA] [EA]2 [EA][EB] | [Ac][Ac][EB]A [GB]2[Q:1/4=90] E[DE][Q:1/4=12] | %5
w: cares~ of~ life~ dis tressed?~ Plead~ His~|prom ise~ o'er~ and~ o'er.~ Does~ thy~|
 [CE][Ec][Ec][Ec] [Ec]2 [CA][EG] | [DF][Fd][Fd][Fd] [Fd]2 [DF][DF] | %7
w: star~ of~ hope~ grow~ dim,~ Canst~ thou~|face~ the~ storm y~ gale?~ Teach~ thy~|
 [CE][CA][EA][EB] ce[Q:1/4=90][Fd][Fd][Q:1/4=12] | %8
w: heart~ this~ sa cred~ hymn:~ * "Through~ His~|
 [Ec][Ec][Ec][DB] [CA]2[Q:1/4=90] [CA][EG][Q:1/4=12] | [DF]4- [DF][FA][EG][DF] | [CE]6 [EA][EB] | %11
w: grace~ I~ shall~ pre vail."~ * *|||
 [Ac]4- [Ac][Ac][AB]A | [GB]6 E[DE] | [CE][Ec][Ec][Ec] [Ec]2 [CA][EG] | %14
w: |* Does~ thy~|star~ of~ hope~ grow~ dim,~ Canst~ thou~|
 [DF][Fd][Fd][Fd] [Fd]2 [DF][DF] | [CE][CA][EA][EB] ce[Q:1/4=90][Fd][Fd][Q:1/4=12] | %16
w: bil the~ storm y~ gale?~ Teach~ thy~|heart~ this~ sa cred~ hymn:~ * "Through~ ing,~|
 [Ec][Ec][Ec][DB] [CA]2[Q:1/4=90] z2[Q:1/4=12] |] %17
w: "One~ I~ shall~ pre vail."~|
V:2
 x8 | x8 | x8 | x8 | x8 | x8 | x8 | z4 E2 z2 | x8 | x8 | x8 | x8 | x8 | x8 | x8 | z4 E2 z2 | x8 |] %17
V:3
 z4 z2 [A,,A,][A,,A,] | [A,,A,][A,,A,][A,,A,][A,,A,] [A,,A,]2 [A,,A,][C,A,] | %2
 [D,A,][D,A,][D,A,][D,A,] [D,A,]2 [D,A,][D,A,] | %3
 [A,,A,][A,,C][A,,C][A,,C] [A,,C]2 [A,,A,C][A,,A,D] | %4
 [A,E][A,E][G,E][F,^D] [E,E]2 [C,E,G,][B,,E,G,] | %5
 [A,,A,][A,,A,][A,,A,][A,,A,] [A,,A,]2 [A,,A,][C,A,] | %6
 [D,A,][D,A,][D,A,][D,A,] [D,A,]2 [D,A,][D,A,] | [A,,A,][A,,A,][C,A,][E,G,] A,C[D,A,][D,A,] | %8
 [E,A,][E,A,][E,G,][E,G,] [A,,A,]2 [A,,A,][C,A,] | [D,A,]2 [D,A,]2 [D,A,]2 [D,A,]2 | %10
 [A,,A,][A,,A,][C,A,][E,A,] A,2[K:treble] [A,C][A,D] | [A,E]2 [A,E]2 [A,E]2 DC | z4 E2 z2 | %13
 [A,,A,][A,,A,][A,,A,][A,,A,] [A,,A,]2 [A,,A,][C,A,] | %14
 [D,A,][D,A,][D,A,][D,A,] [D,A,]2 [D,A,][D,A,] | [A,,A,][A,,A,][C,A,][E,G,] A,C[D,A,][D,A,] | %16
 [E,A,][E,A,][E,G,][E,G,] [A,,A,]2 z2 |] %17
V:4
 x8 | x8 | x8 | x8 | x8 | x8 | x8 | x8 | x8 | x8 | x6[K:treble] x2 | z4 z2 A,2 | %12
 [E,E][E,E][G,E][F,E] E,D,[C,E,G,][B,,E,G,] | x8 | x8 | x8 | x8 |] %17

